**kern	**kern
*part1	*part1
*staff2	*staff1
*I"Piano	*
*clefF4	*clefG2
*k[b-e-a-]	*k[b-e-a-]
=1	=1
4B-]	4d] 4f] 4b-]
8A-	8e- 8a- 8cc-X
=	=
4G-X	4g-X 4b- 4dd-X
8A-	8e- 8a- 8cc-X
=	=
*	*^
4B-	8b-L	4dn 4f
.	8cc-X	.
8c-X	8a-J	8e-
*	*v	*v
=	=
4.B-	4.d 4.f 4.b-
=	=
4G-X	4d-X 4g-X 4b-
8E-	8e- 8g- 8cc-X
=	=
4D-X	4f 4a- 4dd-X
8G-X	8d-X 8g-X 8b-
=	=
4A-	4c-X 4e- 4a-
8c-X	8e- 8g-X
=	=
*-	*-
!!!system-decoration: {(s1,s2)}
